packages/web-icons/svgs/edit.svg

<svg viewBox="0 0 62 49" xmlns="http://www.w3.org/2000/svg" class="ridi_icon"><path d="M30.8 36.9l4-4-5.2-5.2-4 4v1.9h3.3v3.3h1.9zm15-24.6c-.4-.4-.7-.4-1.1 0l-12 12c-.4.4-.4.8 0 1.1.4.4.7.4 1.1 0l12-12c.3-.4.4-.7 0-1.1zm2.7 20.3V39c0 2.7-1 5-2.9 6.9-1.9 1.9-4.2 2.9-6.9 2.9H10.3c-2.7 0-5-1-6.9-2.9C1.5 44 .5 41.7.5 39V10.7c0-2.7 1-5 2.9-6.9C5.3 1.9 7.6.9 10.3.9h28.5c1.4 0 2.8.3 4 .9.2.2.4.4.5.8.1.4 0 .7-.3 1l-1.7 1.7c-.3.3-.7.4-1.1.3-.5-.1-1-.2-1.5-.2H10.3c-1.5 0-2.8.5-3.9 1.6s-1.6 2.4-1.6 3.9V39c0 1.5.5 2.8 1.6 3.9s2.4 1.6 3.9 1.6h28.5c1.5 0 2.8-.5 3.9-1.6s1.6-2.4 1.6-3.9v-4.3c0-.3.1-.5.3-.8l2.2-2.2c.3-.3.7-.4 1.2-.2.3.3.5.6.5 1.1zM45.2 7.4l9.8 9.8-22.8 22.9h-9.9v-9.8L45.2 7.4zm15.3 4.5L57.3 15l-9.8-9.8 3.1-3.1c.6-.6 1.4-1 2.3-1 .9 0 1.7.3 2.3 1l5.2 5.2c.6.6 1 1.4 1 2.3 0 .9-.3 1.7-.9 2.3z"/></svg>

<?xml version="1.0" encoding="UTF-8"?>
<svg width="62px" height="49px" viewBox="0 0 62 49" version="1.1" xmlns="http://www.w3.org/2000/svg">
  <!-- Generator: Sketch 41.2 (35397) - http://www.bohemiancoding.com/sketch -->
  <title>edit</title>
  <desc>Created with Sketch.</desc>
  <defs></defs>
  <g id="Page-1" stroke="none" stroke-width="1" fill="none" fill-rule="evenodd">
    <g id="edit" fill="#000000">
      <g id="레이어_1">
        <path d="M30.8,36.9 L34.8,32.9 L29.6,27.7 L25.6,31.7 L25.6,33.6 L28.9,33.6 L28.9,36.9 L30.8,36.9 Z M45.8,12.3 C45.4,11.9 45.1,11.9 44.7,12.3 L32.7,24.3 C32.3,24.7 32.3,25.1 32.7,25.4 C33.1,25.8 33.4,25.8 33.8,25.4 L45.8,13.4 C46.1,13 46.2,12.7 45.8,12.3 Z M48.5,32.6 L48.5,39 C48.5,41.7 47.5,44 45.6,45.9 C43.7,47.8 41.4,48.8 38.7,48.8 L10.3,48.8 C7.6,48.8 5.3,47.8 3.4,45.9 C1.5,44 0.5,41.7 0.5,39 L0.5,10.7 C0.5,8 1.5,5.7 3.4,3.8 C5.3,1.9 7.6,0.9 10.3,0.9 L38.8,0.9 C40.2,0.9 41.6,1.2 42.8,1.8 C43,2 43.2,2.2 43.3,2.6 C43.4,3 43.3,3.3 43,3.6 L41.3,5.3 C41,5.6 40.6,5.7 40.2,5.6 C39.7,5.5 39.2,5.4 38.7,5.4 L10.3,5.4 C8.8,5.4 7.5,5.9 6.4,7 C5.3,8.1 4.8,9.4 4.8,10.9 L4.8,39 C4.8,40.5 5.3,41.8 6.4,42.9 C7.5,44 8.8,44.5 10.3,44.5 L38.8,44.5 C40.3,44.5 41.6,44 42.7,42.9 C43.8,41.8 44.3,40.5 44.3,39 L44.3,34.7 C44.3,34.4 44.4,34.2 44.6,33.9 L46.8,31.7 C47.1,31.4 47.5,31.3 48,31.5 C48.3,31.8 48.5,32.1 48.5,32.6 L48.5,32.6 Z M45.2,7.4 L55,17.2 L32.2,40.1 L22.3,40.1 L22.3,30.3 L45.2,7.4 Z M60.5,11.9 L57.3,15 L47.5,5.2 L50.6,2.1 C51.2,1.5 52,1.1 52.9,1.1 C53.8,1.1 54.6,1.4 55.2,2.1 L60.4,7.3 C61,7.9 61.4,8.7 61.4,9.6 C61.4,10.5 61.1,11.3 60.5,11.9 L60.5,11.9 Z" id="Shape"></path>
      </g>
    </g>
  </g>
</svg>
